public/mascots/dropout/owl-256x256.svg

<svg xmlns="http://www.w3.org/2000/svg" width="256" height="256" viewBox="0 0 256 256"><defs><linearGradient id="a" x1="0%" x2="100%" y1="0%" y2="100%"><stop offset="0%" style="stop-color:#9d4edd"/><stop offset="40%" style="stop-color:#7b2cbf"/><stop offset="100%" style="stop-color:#5a189a"/></linearGradient><linearGradient id="c" x1="0%" x2="0%" y1="0%" y2="100%"><stop offset="0%" style="stop-color:#ffb347"/><stop offset="50%" style="stop-color:#ff9e00"/><stop offset="100%" style="stop-color:#cc7000"/></linearGradient><linearGradient id="d" x1="0%" x2="100%" y1="0%" y2="100%"><stop offset="0%" style="stop-color:#fff8dc"/><stop offset="30%" style="stop-color:gold"/><stop offset="50%" style="stop-color:orange"/><stop offset="70%" style="stop-color:gold"/><stop offset="100%" style="stop-color:#fff8dc"/></linearGradient><filter id="b" width="140%" height="140%" x="-20%" y="-20%"><feDropShadow dx="3" dy="5" flood-opacity=".3" stdDeviation="4"/></filter><filter id="e" width="200%" height="200%" x="-50%" y="-50%"><feGaussianBlur result="blur" stdDeviation="1"/><feComposite in="SourceGraphic" in2="blur"/></filter></defs><ellipse cx="128" cy="160" fill="url(#a)" filter="url(#b)" rx="80" ry="72"/><ellipse cx="128" cy="160" fill="none" stroke="#5a189a" opacity=".2" rx="70" ry="60"/><ellipse cx="128" cy="160" fill="none" stroke="#9d4edd" stroke-width=".5" opacity=".3" rx="55" ry="48"/><path fill="url(#c)" d="M48 160q0 64 80 64t80-64v-16q0 48-80 48t-80-48Z"/><g fill="none" stroke="#8b4513" stroke-width="2" opacity=".35"><path d="M56 176q72 20 144 0"/><path d="M56 192q72 20 144 0"/><path d="M56 208q72 20 144 0"/></g><g stroke="#8b4513" stroke-width="1.5" opacity=".25"><path d="M64 168v4m8-2v4m8-3v4M176 171v4m8-5v4m8-6v4"/></g><ellipse cx="128" cy="144" fill="#ff9e00" stroke="#cc7000" stroke-width="2" rx="64" ry="20"/><ellipse cx="128" cy="144" fill="none" stroke="#e08500" rx="56" ry="16"/><ellipse cx="128" cy="144" fill="none" stroke="#cc7000" stroke-width=".5" opacity=".5" rx="48" ry="12"/><ellipse cx="128" cy="80" fill="url(#a)" filter="url(#b)" rx="72" ry="64"/><ellipse cx="112" cy="56" fill="#9d4edd" opacity=".3" rx="30" ry="20"/><path fill="#7b2cbf" d="M64 40 48 16l32 16ZM192 40l16-24-32 16Z"/><path fill="#9d4edd" d="m72 32-8-20 20 16ZM184 32l8-20-20 16Z"/><path fill="#5a189a" d="M68 28 60 8l16 16ZM188 28l8-20-16 16Z"/><ellipse cx="128" cy="84" fill="#7b2cbf" opacity=".3" rx="60" ry="48"/><circle cx="96" cy="80" r="28" fill="#fff"/><circle cx="160" cy="80" r="28" fill="#fff"/><ellipse cx="96" cy="108" fill="#5a189a" opacity=".1" rx="20" ry="8"/><ellipse cx="160" cy="108" fill="#5a189a" opacity=".1" rx="20" ry="8"/><circle cx="96" cy="80" r="16" fill="#1a1a2e"/><circle cx="160" cy="80" r="16" fill="#1a1a2e"/><circle cx="92" cy="76" r="5" fill="#33334d"/><circle cx="156" cy="76" r="5" fill="#33334d"/><circle cx="104" cy="72" r="6" fill="#fff"/><circle cx="168" cy="72" r="6" fill="#fff"/><circle cx="92" cy="84" r="3" fill="#fff" opacity=".7"/><circle cx="156" cy="84" r="3" fill="#fff" opacity=".7"/><circle cx="96" cy="80" r="32" fill="none" stroke="url(#d)" stroke-width="4"/><circle cx="160" cy="80" r="32" fill="none" stroke="url(#d)" stroke-width="4"/><path fill="none" stroke="url(#d)" stroke-width="3" d="M128 80V64"/><path stroke="url(#d)" stroke-width="3" d="M128 76v8"/><path stroke="url(#d)" stroke-width="3" d="m64 80-8-8"/><path stroke="url(#d)" stroke-width="3" d="m192 80 8-8"/><g fill="none" stroke="#fff" stroke-width="3" filter="url(#e)"><path d="M76 64q12-8 28 0M140 64q12-8 28 0" opacity=".8"/></g><circle cx="96" cy="80" r="28" fill="none" stroke="#b8860b" opacity=".5"/><circle cx="160" cy="80" r="28" fill="none" stroke="#b8860b" opacity=".5"/><path fill="#ffb347" d="m120 104 8 16 8-16Z"/><path fill="orange" d="m120 104 8 8 8-8Z"/><path fill="#ff8c00" d="m124 108 4 6 4-6Z"/><path fill="none" stroke="#ffe4b5" d="m126 106 2 4 2-4"/><path fill="none" stroke="#5a189a" stroke-linecap="round" stroke-width="3" d="M72 56q24-8 40 0M144 56q16-8 40 0"/><path fill="none" stroke="#7b2cbf" stroke-width="1.5" d="M76 54q20-7 32 0M148 54q12-7 32 0" opacity=".5"/><g fill="none" stroke="#9d4edd" stroke-width="3" opacity=".4"><path d="M112 176q16 8 32 0M112 192q16 8 32 0M112 208q16 8 32 0"/></g><path fill="none" stroke="#5a189a" stroke-width="3" d="M56 144q-8 24 0 48M200 144q8 24 0 48" opacity=".3"/><path fill="none" stroke="#7b2cbf" stroke-width="2" d="M60 152q-6 16 0 32M196 152q6 16 0 32" opacity=".4"/></svg>

<svg xmlns="http://www.w3.org/2000/svg" width="256" height="256" viewBox="0 0 256 256">
  <!-- Dropout Style Owl - 256x256 -->
  <defs>
    <linearGradient id="bodyGrad256" x1="0%" y1="0%" x2="100%" y2="100%">
      <stop offset="0%" style="stop-color:#9D4EDD"/>
      <stop offset="40%" style="stop-color:#7B2CBF"/>
      <stop offset="100%" style="stop-color:#5A189A"/>
    </linearGradient>
    <linearGradient id="sweaterGrad256" x1="0%" y1="0%" x2="0%" y2="100%">
      <stop offset="0%" style="stop-color:#FFB347"/>
      <stop offset="50%" style="stop-color:#FF9E00"/>
      <stop offset="100%" style="stop-color:#CC7000"/>
    </linearGradient>
    <linearGradient id="glassesGrad256" x1="0%" y1="0%" x2="100%" y2="100%">
      <stop offset="0%" style="stop-color:#FFF8DC"/>
      <stop offset="30%" style="stop-color:#FFD700"/>
      <stop offset="50%" style="stop-color:#FFA500"/>
      <stop offset="70%" style="stop-color:#FFD700"/>
      <stop offset="100%" style="stop-color:#FFF8DC"/>
    </linearGradient>
    <filter id="shadow256" x="-20%" y="-20%" width="140%" height="140%">
      <feDropShadow dx="3" dy="5" stdDeviation="4" flood-opacity="0.3"/>
    </filter>
    <filter id="glint256" x="-50%" y="-50%" width="200%" height="200%">
      <feGaussianBlur stdDeviation="1" result="blur"/>
      <feComposite in="SourceGraphic" in2="blur" operator="over"/>
    </filter>
  </defs>
  
  <!-- Body -->
  <ellipse cx="128" cy="160" rx="80" ry="72" fill="url(#bodyGrad256)" filter="url(#shadow256)"/>
  
  <!-- Body Texture/Shading -->
  <ellipse cx="128" cy="160" rx="70" ry="60" fill="none" stroke="#5A189A" stroke-width="1" opacity="0.2"/>
  <ellipse cx="128" cy="160" rx="55" ry="48" fill="none" stroke="#9D4EDD" stroke-width="0.5" opacity="0.3"/>
  
  <!-- Sweater -->
  <path d="M48 160 Q48 224 128 224 Q208 224 208 160 L208 144 Q208 192 128 192 Q48 192 48 144 Z" fill="url(#sweaterGrad256)"/>
  
  <!-- Sweater Ribbing Detail -->
  <g opacity="0.35">
    <path d="M56 176 Q128 196 200 176" stroke="#8B4513" stroke-width="2" fill="none"/>
    <path d="M56 192 Q128 212 200 192" stroke="#8B4513" stroke-width="2" fill="none"/>
    <path d="M56 208 Q128 228 200 208" stroke="#8B4513" stroke-width="2" fill="none"/>
  </g>
  
  <!-- Sweater Stitching Detail -->
  <g opacity="0.25">
    <path d="M64 168 L64 172 M72 170 L72 174 M80 171 L80 175" stroke="#8B4513" stroke-width="1.5"/>
    <path d="M176 171 L176 175 M184 170 L184 174 M192 168 L192 172" stroke="#8B4513" stroke-width="1.5"/>
  </g>
  
  <!-- Sweater Collar -->
  <ellipse cx="128" cy="144" rx="64" ry="20" fill="#FF9E00" stroke="#CC7000" stroke-width="2"/>
  <ellipse cx="128" cy="144" rx="56" ry="16" fill="none" stroke="#E08500" stroke-width="1"/>
  <ellipse cx="128" cy="144" rx="48" ry="12" fill="none" stroke="#CC7000" stroke-width="0.5" opacity="0.5"/>
  
  <!-- Head -->
  <ellipse cx="128" cy="80" rx="72" ry="64" fill="url(#bodyGrad256)" filter="url(#shadow256)"/>
  
  <!-- Head Highlight -->
  <ellipse cx="112" cy="56" rx="30" ry="20" fill="#9D4EDD" opacity="0.3"/>
  
  <!-- Ears/Tufts -->
  <path d="M64 40 L48 16 L80 32 Z" fill="#7B2CBF"/>
  <path d="M192 40 L208 16 L176 32 Z" fill="#7B2CBF"/>
  <path d="M72 32 L64 12 L84 28 Z" fill="#9D4EDD"/>
  <path d="M184 32 L192 12 L172 28 Z" fill="#9D4EDD"/>
  <path d="M68 28 L60 8 L76 24 Z" fill="#5A189A"/>
  <path d="M188 28 L196 8 L180 24 Z" fill="#5A189A"/>
  
  <!-- Face Disc -->
  <ellipse cx="128" cy="84" rx="60" ry="48" fill="#7B2CBF" opacity="0.3"/>
  
  <!-- Eyes Background -->
  <circle cx="96" cy="80" r="28" fill="#FFFFFF"/>
  <circle cx="160" cy="80" r="28" fill="#FFFFFF"/>
  
  <!-- Eye Shadows -->
  <ellipse cx="96" cy="108" rx="20" ry="8" fill="#5A189A" opacity="0.1"/>
  <ellipse cx="160" cy="108" rx="20" ry="8" fill="#5A189A" opacity="0.1"/>
  
  <!-- Pupils -->
  <circle cx="96" cy="80" r="16" fill="#1A1A2E"/>
  <circle cx="160" cy="80" r="16" fill="#1A1A2E"/>
  
  <!-- Pupil Highlights -->
  <circle cx="92" cy="76" r="5" fill="#33334D"/>
  <circle cx="156" cy="76" r="5" fill="#33334D"/>
  
  <!-- Eye Highlights -->
  <circle cx="104" cy="72" r="6" fill="#FFFFFF"/>
  <circle cx="168" cy="72" r="6" fill="#FFFFFF"/>
  <circle cx="92" cy="84" r="3" fill="#FFFFFF" opacity="0.7"/>
  <circle cx="156" cy="84" r="3" fill="#FFFFFF" opacity="0.7"/>
  
  <!-- Glasses Frame -->
  <circle cx="96" cy="80" r="32" stroke="url(#glassesGrad256)" stroke-width="4" fill="none"/>
  <circle cx="160" cy="80" r="32" stroke="url(#glassesGrad256)" stroke-width="4" fill="none"/>
  
  <!-- Glasses Bridge -->
  <path d="M128 80 Q128 64 128 64" stroke="url(#glassesGrad256)" stroke-width="3" fill="none"/>
  <line x1="128" y1="76" x2="128" y2="84" stroke="url(#glassesGrad256)" stroke-width="3"/>
  
  <!-- Glasses Temples -->
  <line x1="64" y1="80" x2="56" y2="72" stroke="url(#glassesGrad256)" stroke-width="3"/>
  <line x1="192" y1="80" x2="200" y2="72" stroke="url(#glassesGrad256)" stroke-width="3"/>
  
  <!-- Glasses Glint -->
  <g filter="url(#glint256)">
    <path d="M76 64 Q88 56 104 64" stroke="#FFFFFF" stroke-width="3" fill="none" opacity="0.8"/>
    <path d="M140 64 Q152 56 168 64" stroke="#FFFFFF" stroke-width="3" fill="none" opacity="0.8"/>
  </g>
  
  <!-- Frame Detail -->
  <circle cx="96" cy="80" r="28" stroke="#B8860B" stroke-width="1" fill="none" opacity="0.5"/>
  <circle cx="160" cy="80" r="28" stroke="#B8860B" stroke-width="1" fill="none" opacity="0.5"/>
  
  <!-- Beak -->
  <path d="M120 104 L128 120 L136 104 Z" fill="#FFB347"/>
  <path d="M120 104 L128 112 L136 104 Z" fill="#FFA500"/>
  <path d="M124 108 L128 114 L132 108 Z" fill="#FF8C00"/>
  
  <!-- Beak Highlight -->
  <path d="M126 106 L128 110 L130 106" stroke="#FFE4B5" stroke-width="1" fill="none"/>
  
  <!-- Thoughtful Eyebrows -->
  <path d="M72 56 Q96 48 112 56" stroke="#5A189A" stroke-width="3" fill="none" stroke-linecap="round"/>
  <path d="M144 56 Q160 48 184 56" stroke="#5A189A" stroke-width="3" fill="none" stroke-linecap="round"/>
  
  <!-- Eyebrow Detail -->
  <path d="M76 54 Q96 47 108 54" stroke="#7B2CBF" stroke-width="1.5" fill="none" opacity="0.5"/>
  <path d="M148 54 Q160 47 180 54" stroke="#7B2CBF" stroke-width="1.5" fill="none" opacity="0.5"/>
  
  <!-- Chest Feather Detail -->
  <g opacity="0.4">
    <path d="M112 176 Q128 184 144 176" stroke="#9D4EDD" stroke-width="3" fill="none"/>
    <path d="M112 192 Q128 200 144 192" stroke="#9D4EDD" stroke-width="3" fill="none"/>
    <path d="M112 208 Q128 216 144 208" stroke="#9D4EDD" stroke-width="3" fill="none"/>
  </g>
  
  <!-- Wing Hints -->
  <path d="M56 144 Q48 168 56 192" stroke="#5A189A" stroke-width="3" fill="none" opacity="0.3"/>
  <path d="M200 144 Q208 168 200 192" stroke="#5A189A" stroke-width="3" fill="none" opacity="0.3"/>
  
  <!-- Wing Detail -->
  <path d="M60 152 Q54 168 60 184" stroke="#7B2CBF" stroke-width="2" fill="none" opacity="0.4"/>
  <path d="M196 152 Q202 168 196 184" stroke="#7B2CBF" stroke-width="2" fill="none" opacity="0.4"/>
</svg>
